client/src/assets/images/onboarding-first.svg

<svg width="121" height="121" viewBox="0 0 121 121" fill="none" xmlns="http://www.w3.org/2000/svg">
<g opacity="0.8" filter="url(#filter0_d)">
<path d="M60.5 0C49.3254 0 38.4017 3.31367 29.1103 9.52197C19.8189 15.7303 12.5772 24.5544 8.30083 34.8784C4.02448 45.2024 2.90559 56.5627 5.08566 67.5226C7.26572 78.4825 12.6468 88.5499 20.5485 96.4515C28.4502 104.353 38.5175 109.734 49.4774 111.914C60.4373 114.094 71.7976 112.976 82.1216 108.699C92.4456 104.423 101.27 97.1811 107.478 87.8897C113.686 78.5983 117 67.6746 117 56.5C117 41.5153 111.047 27.1443 100.452 16.5485C89.8557 5.95266 75.4847 0 60.5 0ZM110.427 39.55H98.1667C97.6672 39.55 97.1881 39.3516 96.835 38.9984C96.4818 38.6452 96.2833 38.1661 96.2833 37.6667C96.2833 36.1682 95.6881 34.7311 94.6285 33.6715C93.5689 32.6119 92.1318 32.0167 90.6333 32.0167H79.3333C78.8339 32.0167 78.3548 31.8182 78.0016 31.465C77.6484 31.1119 77.45 30.6328 77.45 30.1333C77.45 29.6338 77.6484 29.1548 78.0016 28.8016C78.3548 28.4484 78.8339 28.25 79.3333 28.25H81.2167C82.7151 28.25 84.1522 27.6547 85.2118 26.5951C86.2714 25.5356 86.8667 24.0985 86.8667 22.6C86.8667 21.1015 86.2714 19.6644 85.2118 18.6048C84.1522 17.5453 82.7151 16.95 81.2167 16.95H68.0333C67.5339 16.95 67.0548 16.7516 66.7016 16.3984C66.3484 16.0452 66.15 15.5662 66.15 15.0667C66.15 14.5672 66.3484 14.0881 66.7016 13.7349C67.0548 13.3818 67.5339 13.1833 68.0333 13.1833H90.5203C99.7931 19.6295 106.767 28.8664 110.427 39.55ZM21.9105 20.7167H47.3167C47.8162 20.7167 48.2952 20.9151 48.6484 21.2683C49.0016 21.6215 49.2 22.1005 49.2 22.6C49.2 23.0995 49.0016 23.5785 48.6484 23.9317C48.2952 24.2849 47.8162 24.4833 47.3167 24.4833H34.1334C32.6349 24.4833 31.1978 25.0786 30.1382 26.1382C29.0786 27.1978 28.4834 28.6349 28.4834 30.1333C28.4834 31.6318 29.0786 33.0689 30.1382 34.1285C31.1978 35.1881 32.6349 35.7833 34.1334 35.7833H37.9C38.3995 35.7833 38.8785 35.9817 39.2317 36.3349C39.5849 36.6881 39.7833 37.1672 39.7833 37.6667C39.7833 38.1661 39.5849 38.6452 39.2317 38.9984C38.8785 39.3516 38.3995 39.55 37.9 39.55H19.0667C17.5682 39.55 16.1311 40.1453 15.0715 41.2048C14.012 42.2644 13.4167 43.7015 13.4167 45.2C13.4167 46.6985 14.012 48.1356 15.0715 49.1951C16.1311 50.2547 17.5682 50.85 19.0667 50.85C19.5662 50.85 20.0452 51.0484 20.3984 51.4016C20.7516 51.7548 20.95 52.2338 20.95 52.7333C20.95 53.2328 20.7516 53.7118 20.3984 54.065C20.0452 54.4182 19.5662 54.6167 19.0667 54.6167H7.76669C8.21361 41.9932 13.2026 29.9554 21.8164 20.7167H21.9105ZM11.2509 75.3333H26.6C27.0995 75.3333 27.5785 75.5317 27.9317 75.8849C28.2849 76.2381 28.4834 76.7172 28.4834 77.2167C28.4834 77.7161 28.2849 78.1952 27.9317 78.5484C27.5785 78.9016 27.0995 79.1 26.6 79.1H12.8705C12.2867 77.8758 11.7405 76.614 11.2509 75.3333ZM60.5 109.233C46.7144 109.237 33.4788 103.826 23.6432 94.1666H45.4333C46.4323 94.1666 47.3904 94.5635 48.0968 95.2699C48.8032 95.9763 49.2 96.9343 49.2 97.9333C49.2 99.9313 49.9937 101.847 51.4065 103.26C52.8193 104.673 54.7354 105.467 56.7333 105.467H80.0302C73.8213 107.961 67.1912 109.24 60.5 109.233ZM87.5635 101.7H56.7333C55.7344 101.7 54.7763 101.303 54.0699 100.597C53.3635 99.8904 52.9667 98.9323 52.9667 97.9333C52.9667 95.9353 52.173 94.0192 50.7602 92.6064C49.3474 91.1937 47.4313 90.4 45.4333 90.4H20.1402C18.1714 88.0434 16.4072 85.5231 14.8669 82.8667H26.6C28.0985 82.8667 29.5356 82.2714 30.5952 81.2118C31.6548 80.1522 32.25 78.7151 32.25 77.2167C32.25 75.7182 31.6548 74.2811 30.5952 73.2215C29.5356 72.1619 28.0985 71.5667 26.6 71.5667H9.97019C8.66872 67.286 7.92804 62.8546 7.76669 58.3833H19.0667C20.5652 58.3833 22.0023 57.7881 23.0618 56.7285C24.1214 55.6689 24.7167 54.2318 24.7167 52.7333C24.7167 51.2349 24.1214 49.7977 23.0618 48.7382C22.0023 47.6786 20.5652 47.0833 19.0667 47.0833C18.5672 47.0833 18.0882 46.8849 17.735 46.5317C17.3818 46.1785 17.1834 45.6995 17.1834 45.2C17.1834 44.7005 17.3818 44.2215 17.735 43.8683C18.0882 43.5151 18.5672 43.3167 19.0667 43.3167H37.9C39.3985 43.3167 40.8356 42.7214 41.8952 41.6618C42.9548 40.6022 43.55 39.1651 43.55 37.6667C43.55 36.1682 42.9548 34.7311 41.8952 33.6715C40.8356 32.6119 39.3985 32.0167 37.9 32.0167H34.1334C33.6339 32.0167 33.1548 31.8182 32.8016 31.465C32.4484 31.1119 32.25 30.6328 32.25 30.1333C32.25 29.6338 32.4484 29.1548 32.8016 28.8016C33.1548 28.4484 33.6339 28.25 34.1334 28.25H47.3167C48.8152 28.25 50.2523 27.6547 51.3118 26.5951C52.3714 25.5356 52.9667 24.0985 52.9667 22.6C52.9667 21.1015 52.3714 19.6644 51.3118 18.6048C50.2523 17.5453 48.8152 16.95 47.3167 16.95H25.6772C33.5605 9.9825 43.3527 5.54008 53.7876 4.1971C64.2226 2.85411 74.8206 4.67233 84.2112 9.41667H68.0333C66.5349 9.41667 65.0978 10.0119 64.0382 11.0715C62.9786 12.1311 62.3833 13.5682 62.3833 15.0667C62.3833 16.5651 62.9786 18.0022 64.0382 19.0618C65.0978 20.1214 66.5349 20.7167 68.0333 20.7167H81.2167C81.7162 20.7167 82.1952 20.9151 82.5484 21.2683C82.9016 21.6215 83.1 22.1005 83.1 22.6C83.1 23.0995 82.9016 23.5785 82.5484 23.9317C82.1952 24.2849 81.7162 24.4833 81.2167 24.4833H79.3333C77.8349 24.4833 76.3978 25.0786 75.3382 26.1382C74.2786 27.1978 73.6833 28.6349 73.6833 30.1333C73.6833 31.6318 74.2786 33.0689 75.3382 34.1285C76.3978 35.1881 77.8349 35.7833 79.3333 35.7833H90.6333C91.1328 35.7833 91.6119 35.9817 91.9651 36.3349C92.3183 36.6881 92.5167 37.1672 92.5167 37.6667C92.5167 39.1651 93.1119 40.6022 94.1715 41.6618C95.2311 42.7214 96.6682 43.3167 98.1667 43.3167H111.557C112.355 46.4018 112.865 49.5541 113.083 52.7333H96.2833C94.7849 52.7333 93.3478 53.3286 92.2882 54.3882C91.2286 55.4478 90.6333 56.8848 90.6333 58.3833C90.6333 59.8818 91.2286 61.3189 92.2882 62.3785C93.3478 63.4381 94.7849 64.0333 96.2833 64.0333H98.1667C98.6662 64.0333 99.1452 64.2317 99.4984 64.5849C99.8516 64.9381 100.05 65.4172 100.05 65.9167C100.05 66.4161 99.8516 66.8952 99.4984 67.2484C99.1452 67.6016 98.6662 67.8 98.1667 67.8H81.2167C79.7182 67.8 78.2811 68.3953 77.2215 69.4548C76.1619 70.5144 75.5667 71.9515 75.5667 73.45C75.5667 74.9485 76.1619 76.3856 77.2215 77.4451C78.2811 78.5047 79.7182 79.1 81.2167 79.1H92.5167C93.0162 79.1 93.4952 79.2984 93.8484 79.6516C94.2016 80.0048 94.4 80.4838 94.4 80.9833C94.4 81.4828 94.2016 81.9618 93.8484 82.315C93.4952 82.6682 93.0162 82.8667 92.5167 82.8667H86.8667C85.3682 82.8667 83.9311 83.4619 82.8715 84.5215C81.8119 85.5811 81.2167 87.0182 81.2167 88.5166C81.2167 90.0151 81.8119 91.4522 82.8715 92.5118C83.9311 93.5714 85.3682 94.1666 86.8667 94.1666H97.3568C94.4014 97.0558 91.114 99.5845 87.5635 101.7ZM86.8667 90.4C86.3672 90.4 85.8881 90.2016 85.535 89.8484C85.1818 89.4952 84.9833 89.0161 84.9833 88.5166C84.9833 88.0172 85.1818 87.5381 85.535 87.1849C85.8881 86.8317 86.3672 86.6333 86.8667 86.6333H92.5167C94.0151 86.6333 95.4522 86.038 96.5118 84.9785C97.5714 83.9189 98.1667 82.4818 98.1667 80.9833C98.1667 79.4848 97.5714 78.0477 96.5118 76.9882C95.4522 75.9286 94.0151 75.3333 92.5167 75.3333H81.2167C80.7172 75.3333 80.2382 75.1349 79.885 74.7817C79.5318 74.4285 79.3333 73.9495 79.3333 73.45C79.3333 72.9505 79.5318 72.4715 79.885 72.1183C80.2382 71.7651 80.7172 71.5667 81.2167 71.5667H98.1667C99.6651 71.5667 101.102 70.9714 102.162 69.9118C103.221 68.8522 103.817 67.4151 103.817 65.9167C103.817 64.4182 103.221 62.9811 102.162 61.9215C101.102 60.8619 99.6651 60.2667 98.1667 60.2667H96.2833C95.7838 60.2667 95.3048 60.0682 94.9516 59.715C94.5984 59.3618 94.4 58.8828 94.4 58.3833C94.4 57.8838 94.5984 57.4048 94.9516 57.0516C95.3048 56.6984 95.7838 56.5 96.2833 56.5H113.233C113.239 68.9061 108.856 80.9143 100.86 90.4H86.8667Z" fill="#262D33"/>
<path d="M47.3167 37.6666C47.3167 39.1651 47.9119 40.6022 48.9715 41.6618C50.0311 42.7213 51.4682 43.3166 52.9666 43.3166H56.7333C58.2318 43.3166 59.6689 42.7213 60.7285 41.6618C61.788 40.6022 62.3833 39.1651 62.3833 37.6666C62.3833 36.1681 61.788 34.731 60.7285 33.6714C59.6689 32.6119 58.2318 32.0166 56.7333 32.0166H52.9666C51.4682 32.0166 50.0311 32.6119 48.9715 33.6714C47.9119 34.731 47.3167 36.1681 47.3167 37.6666ZM58.6166 37.6666C58.6166 38.1661 58.4182 38.6451 58.065 38.9983C57.7118 39.3515 57.2328 39.5499 56.7333 39.5499H52.9666C52.4672 39.5499 51.9881 39.3515 51.6349 38.9983C51.2817 38.6451 51.0833 38.1661 51.0833 37.6666C51.0833 37.1671 51.2817 36.6881 51.6349 36.3349C51.9881 35.9817 52.4672 35.7833 52.9666 35.7833H56.7333C57.2328 35.7833 57.7118 35.9817 58.065 36.3349C58.4182 36.6881 58.6166 37.1671 58.6166 37.6666Z" fill="#262D33"/>
<path d="M60.5 63.2048L59.1252 64.5796C58.7864 64.9411 58.6037 65.4215 58.6167 65.9168V78.3279L54.85 74.5613C54.963 71.5668 54.9819 62.1501 49.2 56.5001C42.4577 49.7389 30.7434 50.8501 30.2349 50.9819C29.812 51.0303 29.4179 51.2204 29.117 51.5214C28.816 51.8223 28.6259 52.2164 28.5775 52.6393C28.5775 53.1478 27.3534 64.8621 34.0957 71.6044C39.0112 76.5388 46.601 77.2544 50.5184 77.2544H52.138L58.6167 83.6389V86.6334H54.85V90.4001H66.15V86.6334H62.3834V66.6889L63.1932 65.8791H64.8129C68.7302 65.8791 76.32 65.1823 81.2355 60.2291C87.9779 53.4868 86.8855 41.7724 86.7537 41.2639C86.7054 40.841 86.5152 40.447 86.2142 40.146C85.9133 39.8451 85.5192 39.6549 85.0964 39.6066C84.5879 39.5501 72.8735 38.4201 66.15 45.2001C60.3682 50.8501 60.387 60.2668 60.5 63.2048ZM36.7324 68.8548C32.6079 64.7491 32.25 57.7431 32.25 54.6168C35.414 54.6168 42.3824 54.9558 46.5634 59.1368C49.3656 62.3504 50.9635 66.4383 51.0834 70.7004L41.2147 60.8129L38.5404 63.4873L48.3149 73.4501C44.0596 73.3243 39.9796 71.7269 36.77 68.9301L36.7324 68.8548ZM83.1 43.3168C83.1 46.4431 82.761 53.4491 78.58 57.6301C75.3721 60.4296 71.2911 62.0274 67.0352 62.1501L76.9039 52.2814L74.2295 49.6071L64.3609 59.4946C64.4296 55.2111 65.9954 51.0867 68.7867 47.8368C72.9677 43.6746 79.9737 43.3168 83.1 43.3168Z" fill="#262D33"/>
</g>
<defs>
<filter id="filter0_d" x="0" y="0" width="121" height="121" filterUnits="userSpaceOnUse" color-interpolation-filters="sRGB">
<feFlood flood-opacity="0" result="BackgroundImageFix"/>
<feColorMatrix in="SourceAlpha" type="matrix" values="0 0 0 0 0 0 0 0 0 0 0 0 0 0 0 0 0 0 127 0"/>
<feOffset dy="4"/>
<feGaussianBlur stdDeviation="2"/>
<feColorMatrix type="matrix" values="0 0 0 0 0 0 0 0 0 0 0 0 0 0 0 0 0 0 0.25 0"/>
<feBlend mode="normal" in2="BackgroundImageFix" result="effect1_dropShadow"/>
<feBlend mode="normal" in="SourceGraphic" in2="effect1_dropShadow" result="shape"/>
</filter>
</defs>
</svg>

<svg width="121" height="121" fill="none" xmlns="http://www.w3.org/2000/svg"><g opacity=".8" filter="url(#filter0_d)" fill="#262D33"><path d="M60.5 0a56.5 56.5 0 1 0 0 113 56.5 56.5 0 0 0 0-113zm49.927 39.55h-12.26a1.883 1.883 0 0 1-1.884-1.883 5.65 5.65 0 0 0-5.65-5.65h-11.3a1.884 1.884 0 0 1 0-3.767h1.884a5.65 5.65 0 0 0 0-11.3H68.033a1.883 1.883 0 0 1 0-3.767H90.52a53.052 53.052 0 0 1 19.907 26.367zM21.91 20.717h25.407a1.883 1.883 0 1 1 0 3.766H34.133a5.65 5.65 0 0 0 0 11.3H37.9a1.883 1.883 0 1 1 0 3.767H19.067a5.65 5.65 0 0 0 0 11.3 1.883 1.883 0 1 1 0 3.767h-11.3a52.432 52.432 0 0 1 14.05-33.9h.093zM11.25 75.333H26.6a1.883 1.883 0 1 1 0 3.767H12.87a51.498 51.498 0 0 1-1.62-3.767zm49.25 33.9a52.58 52.58 0 0 1-36.857-15.066h21.79a3.767 3.767 0 0 1 3.767 3.766 7.533 7.533 0 0 0 7.533 7.534H80.03a52.25 52.25 0 0 1-19.53 3.766zm27.064-7.533h-30.83a3.768 3.768 0 0 1-3.767-3.767 7.533 7.533 0 0 0-7.534-7.533H20.14a53.995 53.995 0 0 1-5.273-7.533H26.6a5.65 5.65 0 0 0 0-11.3H9.97a51.735 51.735 0 0 1-2.203-13.184h11.3a5.65 5.65 0 1 0 0-11.3 1.883 1.883 0 1 1 0-3.766H37.9a5.65 5.65 0 0 0 0-11.3h-3.767a1.884 1.884 0 0 1 0-3.767h13.184a5.65 5.65 0 1 0 0-11.3h-21.64a52.583 52.583 0 0 1 58.534-7.533H68.033a5.65 5.65 0 0 0 0 11.3h13.184a1.883 1.883 0 1 1 0 3.766h-1.884a5.65 5.65 0 0 0 0 11.3h11.3a1.883 1.883 0 0 1 1.884 1.884 5.65 5.65 0 0 0 5.65 5.65h13.39a51.735 51.735 0 0 1 1.526 9.416h-16.8a5.65 5.65 0 0 0 0 11.3h1.884a1.883 1.883 0 1 1 0 3.767h-16.95a5.65 5.65 0 0 0 0 11.3h11.3a1.883 1.883 0 1 1 0 3.767h-5.65a5.65 5.65 0 1 0 0 11.3h10.49a52.316 52.316 0 0 1-9.793 7.533zm-.697-11.3a1.883 1.883 0 1 1 0-3.767h5.65a5.65 5.65 0 0 0 0-11.3h-11.3a1.883 1.883 0 1 1 0-3.766h16.95a5.651 5.651 0 0 0 0-11.3h-1.884a1.883 1.883 0 0 1 0-3.767h16.95a52.558 52.558 0 0 1-12.373 33.9H86.867z"/><path d="M47.317 37.667a5.65 5.65 0 0 0 5.65 5.65h3.766a5.65 5.65 0 0 0 0-11.3h-3.766a5.65 5.65 0 0 0-5.65 5.65zm11.3 0a1.883 1.883 0 0 1-1.884 1.883h-3.766a1.883 1.883 0 0 1 0-3.767h3.766a1.883 1.883 0 0 1 1.884 1.884zM60.5 63.205l-1.375 1.375a1.883 1.883 0 0 0-.508 1.337v12.41l-3.767-3.766c.113-2.994.132-12.41-5.65-18.06-6.742-6.762-18.457-5.65-18.965-5.52a1.883 1.883 0 0 0-1.657 1.658c0 .509-1.225 12.223 5.518 18.965 4.915 4.935 12.505 5.65 16.422 5.65h1.62l6.479 6.385v2.994H54.85V90.4h11.3v-3.767h-3.767V66.69l.81-.81h1.62c3.917 0 11.507-.697 16.422-5.65 6.743-6.742 5.65-18.457 5.519-18.965a1.883 1.883 0 0 0-1.658-1.657c-.508-.057-12.222-1.187-18.946 5.593-5.782 5.65-5.763 15.067-5.65 18.005zm-23.768 5.65c-4.124-4.106-4.482-11.112-4.482-14.238 3.164 0 10.132.339 14.313 4.52a18.381 18.381 0 0 1 4.52 11.563l-9.868-9.887-2.675 2.674 9.775 9.963a18.4 18.4 0 0 1-11.545-4.52l-.038-.075zM83.1 43.317c0 3.126-.339 10.132-4.52 14.313a18.363 18.363 0 0 1-11.545 4.52l9.869-9.869-2.674-2.674-9.87 9.888a18.344 18.344 0 0 1 4.427-11.658c4.18-4.162 11.187-4.52 14.313-4.52z"/></g><defs><filter id="filter0_d" x="0" y="0" width="121" height="121" filterUnits="userSpaceOnUse" color-interpolation-filters="sRGB"><feFlood flood-opacity="0" result="BackgroundImageFix"/><feColorMatrix in="SourceAlpha" values="0 0 0 0 0 0 0 0 0 0 0 0 0 0 0 0 0 0 127 0"/><feOffset dy="4"/><feGaussianBlur stdDeviation="2"/><feColorMatrix values="0 0 0 0 0 0 0 0 0 0 0 0 0 0 0 0 0 0 0.25 0"/><feBlend in2="BackgroundImageFix" result="effect1_dropShadow"/><feBlend in="SourceGraphic" in2="effect1_dropShadow" result="shape"/></filter></defs></svg>
